;FLAVOR:Marlin
;TIME:9374
;Filament used: 56.5122m
;Layer height: 0.28
;MINX:6.812
;MINY:30.562
;MINZ:0.25
;MAXX:228.188
;MAXY:204.438
;MAXZ:20.97
;Generated with Cura_SteamEngine 4.8.0
M140 S60
M105
M190 S60
M104 S200
M105
M109 S200
M82 ;absolute extrusion mode
G28 ;home
G92 E0 ;Reset Extruder
G1 Z4.0 F3000 ;Move Z Axis up
G92 E0 ;Reset Extruder
G1 X1.1 Y20 Z0.28 F5000.0 ;Move to start position
G1 X1.1 Y80.0 Z0.28 F1500.0 E10 ;Draw the first line
G1 X1.4 Y80.0 Z0.28 F5000.0 ;Move to side a little
G1 X1.4 Y20 Z0.28 F1500.0 E20 ;Draw the second line
G92 E0 ;Reset Extruder
G1 Z2.0 F3000 ;Move Z Axis up
G92 E0
G92 E0
G1 F1800 E-0.5
;LAYER_COUNT:75
;LAYER:0
M107
G1 F600 Z0.65
G0 F15000 X10.276 Y30.725 Z0.65
;TYPE:SKIRT
G1 F600 Z0.25
G1 F1800 E0
G1 F6000 X10.876 Y30.604 E0.03976
G1 X11.5 Y30.562 E0.08039
G1 X223.5 Y30.562 E13.85216
G1 X224.111 Y30.602 E13.89194
G1 X224.711 Y30.721 E13.93168
G1 X225.291 Y30.918 E13.97147
G1 X225.84 Y31.188 E14.01121
G1 X226.349 Y31.527 E14.05094
G1 X226.81 Y31.93 E14.09071
G1 X227.214 Y32.39 E14.13049
G1 X227.555 Y32.898 E14.17023
G1 X227.827 Y33.446 E14.20997
G1 X228.025 Y34.026 E14.24979
G1 X228.146 Y34.626 E14.28955
G1 X228.188 Y35.25 E14.33018
G1 X228.188 Y199.75 E25.01629
G1 X228.148 Y200.361 E25.05607
G1 X228.029 Y200.961 E25.09581
G1 X227.832 Y201.541 E25.1356
G1 X227.562 Y202.09 E25.17534
G1 X227.223 Y202.599 E25.21507
G1 X226.82 Y203.06 E25.25484
G1 X226.36 Y203.464 E25.29461
G1 X225.852 Y203.805 E25.33436
G1 X225.304 Y204.077 E25.3741
G1 X224.724 Y204.275 E25.41392
G1 X224.124 Y204.396 E25.45368
G1 X223.5 Y204.438 E25.4943
G1 X11.5 Y204.438 E39.26608
G1 X10.889 Y204.398 E39.30586
G1 X10.289 Y204.279 E39.34559
G1 X9.709 Y204.082 E39.38538
G1 X9.16 Y203.812 E39.42513
G1 X8.651 Y203.473 E39.46485
G1 X8.19 Y203.07 E39.50463
G1 X7.786 Y202.61 E39.5444
G1 X7.445 Y202.102 E39.58415
G1 X7.173 Y201.554 E39.62389
G1 X6.975 Y200.974 E39.6637
G1 X6.854 Y200.374 E39.70346
G1 X6.812 Y199.75 E39.74409
G1 X6.812 Y35.25 E50.43021
G1 X6.852 Y34.639 E50.46998
G1 X6.971 Y34.039 E50.50972
G1 X7.168 Y33.459 E50.54951
G1 X7.438 Y32.91 E50.58926
G1 X7.777 Y32.401 E50.62898
G1 X8.18 Y31.94 E50.66876
G1 X8.64 Y31.536 E50.70853
G1 X9.148 Y31.195 E50.74828
G1 X9.696 Y30.923 E50.78802
G1 X10.276 Y30.725 E50.82783
G0 F15000 X10.27 Y31.378
G1 F6000 X10.823 Y31.244 E50.86479
G1 X11.5 Y31.187 E50.90893
G1 X223.5 Y31.187 E64.6807
G1 X224.068 Y31.227 E64.71769
G1 X224.626 Y31.346 E64.75476
G1 X225.161 Y31.542 E64.79177
G1 X225.663 Y31.811 E64.82877
G1 X226.123 Y32.147 E64.86577
G1 X226.531 Y32.544 E64.90275
G1 X226.88 Y32.995 E64.9398
G1 X227.162 Y33.49 E64.97681
G1 X227.372 Y34.02 E65.01384
G1 X227.506 Y34.573 E65.0508
G1 X227.563 Y35.25 E65.09494
G1 X227.563 Y199.75 E75.78105
G1 X227.523 Y200.318 E75.81804
G1 X227.404 Y200.876 E75.85511
G1 X227.208 Y201.411 E75.89212
G1 X226.939 Y201.913 E75.92912
G1 X226.603 Y202.373 E75.96612
G1 X226.206 Y202.781 E76.0031
G1 X225.755 Y203.13 E76.04015
G1 X225.26 Y203.412 E76.07716
G1 X224.73 Y203.622 E76.11419
G1 X224.177 Y203.756 E76.15115
G1 X223.5 Y203.813 E76.19529
G1 X11.5 Y203.813 E89.96706
G1 X10.932 Y203.773 E90.00405
G1 X10.374 Y203.654 E90.04111
G1 X9.839 Y203.458 E90.07813
G1 X9.337 Y203.189 E90.11513
G1 X8.877 Y202.853 E90.15213
G1 X8.469 Y202.456 E90.18911
G1 X8.12 Y202.005 E90.22616
G1 X7.838 Y201.51 E90.26316
G1 X7.628 Y200.98 E90.3002
G1 X7.494 Y200.427 E90.33716
G1 X7.437 Y199.75 E90.38129
G1 X7.437 Y35.25 E101.06741
G1 X7.477 Y34.682 E101.1044
G1 X7.596 Y34.124 E101.14147
G1 X7.792 Y33.589 E101.17848
G1 X8.061 Y33.087 E101.21548
G1 X8.397 Y32.627 E101.25248
G1 X8.794 Y32.219 E101.28946
G1 X9.245 Y31.87 E101.32651
G1 X9.74 Y31.588 E101.36351
G1 X10.27 Y31.378 E101.40055
G0 F15000 X10.825 Y31.879
G1 F6000 X11.5 Y31.812 E101.44461
G1 X223.5 Y31.812 E115.21639
G1 X224.023 Y31.852 E115.25046
G1 X224.533 Y31.971 E115.28448
G1 X225.019 Y32.166 E115.3185
G1 X225.47 Y32.433 E115.35255
G1 X225.876 Y32.765 E115.38661
G1 X226.226 Y33.155 E115.42066
G1 X226.513 Y33.593 E115.45467
G1 X226.729 Y34.071 E115.48875
G1 X226.871 Y34.575 E115.52276
G1 X226.938 Y35.25 E115.56683
G1 X226.938 Y199.75 E126.25294
G1 X226.898 Y200.273 E126.28702
G1 X226.779 Y200.783 E126.32104
G1 X226.584 Y201.269 E126.35506
G1 X226.317 Y201.72 E126.3891
G1 X225.985 Y202.126 E126.42317
G1 X225.595 Y202.476 E126.45721
G1 X225.157 Y202.763 E126.49123
G1 X224.679 Y202.979 E126.52531
G1 X224.175 Y203.121 E126.55932
G1 X223.5 Y203.188 E126.60339
G1 X11.5 Y203.188 E140.37516
G1 X10.977 Y203.148 E140.40923
G1 X10.467 Y203.029 E140.44325
G1 X9.981 Y202.834 E140.47727
G1 X9.53 Y202.567 E140.51132
G1 X9.124 Y202.235 E140.54539
G1 X8.774 Y201.845 E140.57943
G1 X8.487 Y201.407 E140.61345
G1 X8.271 Y200.929 E140.64752
G1 X8.129 Y200.425 E140.68154
G1 X8.062 Y199.75 E140.7256
G1 X8.062 Y35.25 E151.41172
G1 X8.102 Y34.727 E151.44579
G1 X8.221 Y34.217 E151.47981
G1 X8.416 Y33.731 E151.51383
G1 X8.683 Y33.28 E151.54788
G1 X9.015 Y32.874 E151.58195
G1 X9.405 Y32.524 E151.61599
G1 X9.843 Y32.237 E151.65
G1 X10.321 Y32.021 E151.68408
G1 X10.825 Y31.879 E151.71809
G0 F15000 X10.883 Y32.506
G1 F6000 X11.5 Y32.437 E151.75843
G1 X223.5 Y32.437 E165.5302
G1 X223.972 Y32.477 E165.56097
G1 X224.431 Y32.596 E165.59177
G1 X224.864 Y32.79 E165.6226
G1 X225.257 Y33.053 E165.65332
G1 X225.601 Y33.38 E165.68415
G1 X225.885 Y33.759 E165.71491
G1 X226.102 Y34.181 E165.74574
G1 X226.244 Y34.633 E165.77652
G1 X226.313 Y35.25 E165.81685
G1 X226.313 Y199.75 E176.50296
G1 X226.273 Y200.222 E176.53374
G1 X226.154 Y200.681 E176.56454
G1 X225.96 Y201.114 E176.59536
G1 X225.697 Y201.507 E176.62608
G1 X225.37 Y201.851 E176.65691
G1 X224.991 Y202.135 E176.68768
G1 X224.569 Y202.352 E176.7185
G1 X224.117 Y202.494 E176.74928
G1 X223.5 Y202.563 E176.78961
G1 X11.5 Y202.563 E190.56139
G1 X11.028 Y202.523 E190.59216
G1 X10.569 Y202.404 E190.62296
G1 X10.136 Y202.21 E190.65378
G1 X9.743 Y201.947 E190.6845
G1 X9.399 Y201.62 E190.71533
G1 X9.115 Y201.241 E190.7461
G1 X8.898 Y200.819 E190.77693
G1 X8.756 Y200.367 E190.8077
G1 X8.687 Y199.75 E190.84803
G1 X8.687 Y35.25 E201.53415
G1 X8.727 Y34.778 E201.56492
G1 X8.846 Y34.319 E201.59573
G1 X9.04 Y33.886 E201.62655
G1 X9.303 Y33.493 E201.65727
G1 X9.63 Y33.149 E201.6881
G1 X10.009 Y32.865 E201.71887
G1 X10.431 Y32.648 E201.74969
G1 X10.883 Y32.506 E201.78047
G0 F15000 X10.997 Y33.121
G1 F6000 X11.5 Y33.062 E201.81337
G1 X223.5 Y33.062 E215.58514
G1 X223.916 Y33.102 E215.61229
G1 X224.317 Y33.22 E215.63945
G1 X224.688 Y33.412 E215.66658
G1 X225.016 Y33.672 E215.69377
G1 X225.288 Y33.989 E215.72091
G1 X225.495 Y34.352 E215.74805
G1 X225.629 Y34.747 E215.77515
G1 X225.688 Y35.25 E215.80805
G1 X225.688 Y199.75 E226.49416
G1 X225.648 Y200.166 E226.52131
G1 X225.53 Y200.567 E226.54847
G1 X225.338 Y200.938 E226.5756
G1 X225.078 Y201.266 E226.60279
G1 X224.761 Y201.538 E226.62993
G1 X224.398 Y201.745 E226.65707
G1 X224.003 Y201.879 E226.68417
G1 X223.5 Y201.938 E226.71707
G1 X11.5 Y201.938 E240.48884
G1 X11.084 Y201.898 E240.51599
G1 X10.683 Y201.78 E240.54315
G1 X10.312 Y201.588 E240.57028
G1 X9.984 Y201.328 E240.59747
G1 X9.712 Y201.011 E240.62461
G1 X9.505 Y200.648 E240.65175
G1 X9.371 Y200.253 E240.67885
G1 X9.312 Y199.75 E240.71175
G1 X9.312 Y35.25 E251.39786
G1 X9.352 Y34.834 E251.42501
G1 X9.47 Y34.433 E251.45217
G1 X9.662 Y34.062 E251.4793
G1 X9.922 Y33.734 E251.50649
G1 X10.239 Y33.462 E251.53363
G1 X10.602 Y33.255 E251.56077
G1 X10.997 Y33.121 E251.58787
G0 F15000 X11.17 Y33.722
G1 F6000 X11.5 Y33.687 E251.60943
G1 X223.5 Y33.687 E265.3812
G1 X223.851 Y33.727 E265.40415
G1 X224.184 Y33.844 E265.42708
G1 X224.482 Y34.034 E265.45004
G1 X224.73 Y34.285 E265.47296
G1 X224.915 Y34.586 E265.49591
G1 X225.028 Y34.92 E265.51881
G1 X225.063 Y35.25 E265.54037
G1 X225.063 Y199.75 E276.22649
G1 X225.023 Y200.101 E276.24944
G1 X224.906 Y200.434 E276.27237
G1 X224.716 Y200.732 E276.29533
G1 X224.465 Y200.98 E276.31825
G1 X224.164 Y201.165 E276.3412
G1 X223.83 Y201.278 E276.3641
G1 X223.5 Y201.313 E276.38566
G1 X11.5 Y201.313 E290.15744
G1 X11.149 Y201.273 E290.18038
G1 X10.816 Y201.156 E290.20331
G1 X10.518 Y200.966 E290.22627
G1 X10.27 Y200.715 E290.24919
G1 X10.085 Y200.414 E290.27214
G1 X9.972 Y200.08 E290.29505
G1 X9.937 Y199.75 E290.31661
G1 X9.937 Y35.25 E301.00272
G1 X9.977 Y34.899 E301.02567
G1 X10.094 Y34.566 E301.0486
G1 X10.284 Y34.268 E301.07156
G1 X10.535 Y34.02 E301.09448
G1 X10.836 Y33.835 E301.11743
G1 X11.17 Y33.722 E301.14034
G0 F15000 X11.133 Y34.387
G1 F6000 X11.5 Y34.312 E301.16467
G1 X223.5 Y34.312 E314.93645
G1 X223.77 Y34.352 E314.95418
G1 X224.018 Y34.468 E314.97196
G1 X224.221 Y34.65 E314.98967
G1 X224.363 Y34.883 E315.0074
G1 X224.438 Y35.25 E315.03173
G1 X224.438 Y199.75 E325.71785
G1 X224.398 Y200.02 E325.73558
G1 X224.282 Y200.268 E325.75337
G1 X224.1 Y200.471 E325.77108
G1 X223.867 Y200.613 E325.7888
G1 X223.5 Y200.688 E325.81314
G1 X11.5 Y200.688 E339.58491
G1 X11.23 Y200.648 E339.60264
G1 X10.982 Y200.532 E339.62043
G1 X10.779 Y200.35 E339.63814
G1 X10.637 Y200.117 E339.65587
G1 X10.562 Y199.75 E339.6802
G1 X10.562 Y35.25 E350.36632
G1 X10.602 Y34.98 E350.38405
G1 X10.718 Y34.732 E350.40183
G1 X10.9 Y34.529 E350.41954
G1 X11.133 Y34.387 E350.43727
G0 F15000 X11.5 Y34.937
G1 F6000 X223.5 Y34.937 E364.20904
G1 X223.652 Y34.976 E364.21924
G1 X223.766 Y35.085 E364.22948
G1 X223.813 Y35.25 E364.24063
G1 X223.813 Y199.75 E374.92675
G1 X223.774 Y199.902 E374.93694
G1 X223.665 Y200.016 E374.94719
G1 X223.5 Y200.063 E374.95833
G1 X11.5 Y200.063 E388.73011
G1 X11.348 Y200.024 E388.7403
G1 X11.234 Y199.915 E388.75055
G1 X11.187 Y199.75 E388.76169
G1 X11.187 Y35.25 E399.44781
G1 X11.226 Y35.098 E399.458
G1 X11.335 Y34.984 E399.46825
G1 X11.5 Y34.937 E399.47939
G1 F1800 E398.97939
G1 F600 Z0.65
;MESH:backPlate.stl
G0 F15000 X223.25 Y199.5 Z0.65
;TYPE:WALL-OUTER
G1 F600 Z0.25
G1 F1800 E399.47939
G1 F6000 X11.75 Y199.5 E410.47083
G1 X11.75 Y35.5 E418.99374
G1 X223.25 Y35.5 E429.98517
G1 X223.25 Y199.5 E438.50808
G0 F15000 X223.05 Y199.5
G0 X222.7 Y198.95
G1 F1800 E438.00808
G1 F600 Z0.65
G0 F15000 X222.488 Y198.738 Z0.65
G0 X85.37 Y148.786
G1 F600 Z0.25
G1 F1800 E438.50808
G1 F6000 X85.849 Y148.51 E438.53681
G1 X86.224 Y148.105 E438.5655
G1 X86.464 Y147.607 E438.59423
G1 X86.546 Y147.061 E438.62292
G1 X86.464 Y146.515 E438.65161
G1 X86.224 Y146.018 E438.6803
G1 X85.849 Y145.612 E438.70902
G1 X85.367 Y145.335 E438.73791
G1 X84.829 Y145.214 E438.76657
G1 X84.281 Y145.254 E438.79512
G1 X83.767 Y145.457 E438.82384
G1 X83.335 Y145.801 E438.85254
G1 X83.024 Y146.257 E438.88122
G1 X82.861 Y146.785 E438.90994
G1 X82.861 Y147.338 E438.93868
G1 X83.024 Y147.866 E438.9674
G1 X83.335 Y148.322 E438.99608
G1 X83.767 Y148.666 E439.02478
G1 X84.281 Y148.867 E439.05346
G1 X84.832 Y148.909 E439.08218
G1 X85.37 Y148.786 E439.11086
G0 F15000 X85.543 Y148.686
G0 X85.566 Y149.286
;TYPE:WALL-INNER
G1 F6000 X86.184 Y148.93 E439.15252
G1 X86.668 Y148.407 E439.19415
G1 X86.977 Y147.765 E439.23577
G1 X87.083 Y147.061 E439.27735
G1 X86.977 Y146.357 E439.31894
G1 X86.668 Y145.716 E439.36051
G1 X86.184 Y145.192 E439.40217
G1 X85.562 Y144.835 E439.44407
G1 X84.869 Y144.679 E439.48556
G1 X84.161 Y144.73 E439.52702
G1 X83.498 Y144.992 E439.56866
G1 X82.941 Y145.436 E439.61027
G1 X82.54 Y146.024 E439.65185
G1 X82.33 Y146.705 E439.69347
G1 X82.33 Y147.418 E439.73512
G1 X82.54 Y148.099 E439.77675
G1 X82.941 Y148.687 E439.81832
G1 X83.499 Y149.131 E439.85998
G1 X84.162 Y149.39 E439.90156
G1 X84.872 Y149.445 E439.94315
G1 X85.566 Y149.286 E439.98474
G0 F15000 X85.774 Y149.815
G1 F6000 X86.538 Y149.374 E440.03627
G1 X87.138 Y148.727 E440.08781
G1 X87.52 Y147.932 E440.13934
G1 X87.651 Y147.061 E440.19079
G1 X87.52 Y146.189 E440.24229
G1 X87.138 Y145.396 E440.29371
G1 X86.538 Y144.747 E440.34534
G1 X85.768 Y144.305 E440.3972
G1 X84.911 Y144.112 E440.44851
G1 X84.035 Y144.176 E440.49982
G1 X83.213 Y144.5 E440.55143
G1 X82.524 Y145.049 E440.60289
G1 X82.028 Y145.777 E440.65435
G1 X81.768 Y146.62 E440.70588
G1 X81.768 Y147.503 E440.75746
G1 X82.028 Y148.346 E440.80899
G1 X82.525 Y149.074 E440.86048
G1 X83.215 Y149.624 E440.91202
G1 X84.035 Y149.944 E440.96344
G1 X84.914 Y150.012 E441.01494
G1 X85.774 Y149.815 E441.06647
G1 F1800 E440.56647
G1 F600 Z0.65
G0 F15000 X85.695 Y149.482 Z0.65
G0 X97.949 Y149.098
;TYPE:WALL-OUTER
G1 F600 Z0.25
G1 F1800 E441.06647
G1 F6000 X98.487 Y148.974 E441.09517
G1 X98.966 Y148.699 E441.12387
G1 X99.341 Y148.293 E441.15259
G1 X99.581 Y147.797 E441.18123
G1 X99.663 Y147.25 E441.20997
G1 X99.581 Y146.703 E441.23872
G1 X99.341 Y146.207 E441.26735
G1 X98.966 Y145.801 E441.29607
G1 X98.484 Y145.525 E441.32494
G1 X97.946 Y145.402 E441.35362
G1 X97.398 Y145.444 E441.38218
G1 X96.884 Y145.645 E441.41086
G1 X96.452 Y145.99 E441.4396
G1 X96.14 Y146.446 E441.46831
G1 X95.978 Y146.974 E441.49701
G1 X95.978 Y147.526 E441.5257
G1 X96.14 Y148.054 E441.5544
G1 X96.452 Y148.51 E441.58312
G1 X96.884 Y148.855 E441.61185
G1 X97.398 Y149.056 E441.64053
G1 X97.949 Y149.098 E441.66925
G0 F15000 X98.143 Y149.054
G0 X97.989 Y149.634
;TYPE:WALL-INNER
G1 F6000 X98.683 Y149.474 E441.71085
G1 X99.301 Y149.119 E441.75248
G1 X99.785 Y148.595 E441.79415
G1 X100.094 Y147.956 E441.83561
G1 X100.2 Y147.25 E441.87731
G1 X100.094 Y146.544 E441.91901
G1 X99.785 Y145.905 E441.96047
G1 X99.301 Y145.381 E442.00214
G1 X98.679 Y145.025 E442.044
G1 X97.986 Y144.866 E442.08554
G1 X97.278 Y144.921 E442.12702
G1 X96.616 Y145.18 E442.16854
G1 X96.059 Y145.625 E442.21019
G1 X95.656 Y146.213 E442.25182
G1 X95.447 Y146.894 E442.29344
G1 X95.447 Y147.606 E442.33503
G1 X95.656 Y148.287 E442.37664
G1 X96.059 Y148.875 E442.41828
G1 X96.616 Y149.32 E442.45992
G1 X97.279 Y149.579 E442.5015
G1 X97.989 Y149.634 E442.5431
G0 F15000 X98.031 Y150.201
G1 F6000 X98.891 Y150.003 E442.59465
G1 X99.655 Y149.563 E442.64615
G1 X100.255 Y148.915 E442.69773
G1 X100.637 Y148.124 E442.74904
G1 X100.768 Y147.25 E442.80067
G1 X100.637 Y146.376 E442.85229
G1 X100.255 Y145.585 E442.9036
G1 X99.655 Y144.936 E442.95523
G1 X98.886 Y144.496 E443.00698
G1 X98.028 Y144.299 E443.0584
G1 X97.151 Y144.367 E443.10979
G1 X96.332 Y144.688 E443.16117
G1 X95.643 Y145.238 E443.21267
G1 X95.144 Y145.966 E443.26422
G1 X94.885 Y146.81 E443.31579
G1 X94.885 Y147.69 E443.36719
G1 X95.144 Y148.534 E443.41876
G1 X95.643 Y149.262 E443.47032
G1 X96.332 Y149.812 E443.52182
G1 X97.152 Y150.133 E443.57326
G1 X98.031 Y150.201 E443.62475
G1 F1800 E443.12475
G1 F600 Z0.65
G0 F15000 X97.96 Y149.868 Z0.65
G0 X204.844 Y172.499
;TYPE:WALL-OUTER
G1 F600 Z0.25
G1 F1800 E443.62475
G1 F6000 X205.276 Y172.844 E443.65349
G1 X205.79 Y173.046 E443.68219
G1 X206.341 Y173.086 E443.7109
G1 X206.879 Y172.963 E443.73958
G1 X207.358 Y172.688 E443.76828
G1 X207.733 Y172.282 E443.797
G1 X207.973 Y171.786 E443.82564
G1 X208.055 Y171.239 E443.85438
G1 X207.973 Y170.692 E443.88313
G1 X207.733 Y170.196 E443.91176
G1 X207.358 Y169.79 E443.94049
G1 X206.876 Y169.514 E443.96935
G1 X206.338 Y169.391 E443.99803
G1 X205.79 Y169.433 E444.02659
G1 X205.276 Y169.634 E444.05528
G1 X204.844 Y169.979 E444.08401
G1 X204.532 Y170.435 E444.11272
G1 X204.37 Y170.963 E444.14142
G1 X204.37 Y171.515 E444.17011
G1 X204.532 Y172.043 E444.19881
G1 X204.844 Y172.499 E444.22753
G0 F15000 X205 Y172.624
G0 X204.451 Y172.864
;TYPE:WALL-INNER
G1 F6000 X205.007 Y173.309 E444.26913
G1 X205.671 Y173.57 E444.3108
G1 X206.382 Y173.621 E444.35244
G1 X207.075 Y173.463 E444.39396
G1 X207.693 Y173.108 E444.43559
G1 X208.177 Y172.584 E444.47726
G1 X208.486 Y171.945 E444.51872
G1 X208.592 Y171.239 E444.56042
G1 X208.486 Y170.533 E444.60212
G1 X208.177 Y169.894 E444.64358
G1 X207.693 Y169.37 E444.68525
G1 X207.071 Y169.014 E444.72711
G1 X206.378 Y168.855 E444.76865
G1 X205.67 Y168.91 E444.81013
G1 X205.008 Y169.169 E444.85165
G1 X204.451 Y169.614 E444.8933
G1 X204.048 Y170.202 E444.93493
G1 X203.839 Y170.883 E444.97655
G1 X203.839 Y171.595 E445.01814
G1 X204.048 Y172.276 E445.05975
G1 X204.451 Y172.864 E445.10139
G0 F15000 X204.035 Y173.251
G1 F6000 X204.722 Y173.801 E445.15279
G1 X205.545 Y174.124 E445.20444
G1 X206.425 Y174.188 E445.25597
