;FLAVOR:Marlin
;TIME:3411
;Filament used: 2.35542m
;Layer height: 0.2
;MINX:85
;MINY:85
;MINZ:0.2
;MAXX:150
;MAXY:150
;MAXZ:9.6
;Generated with Cura_SteamEngine 4.13.0
M140 S60
M105
M190 S60
M104 S200
M105
M109 S200
M82 ;absolute extrusion mode
; Ender 3 Custom Start G-code
G92 E0 ; Reset Extruder
G28 ; Home all axes
G1 Z2.0 F3000 ; Move Z Axis up little to prevent scratching of Heat Bed
G1 X0.1 Y20 Z0.3 F5000.0 ; Move to start position
G1 X0.1 Y200.0 Z0.3 F1500.0 E15 ; Draw the first line
G1 X0.4 Y200.0 Z0.3 F5000.0 ; Move to side a little
G1 X0.4 Y20 Z0.3 F1500.0 E30 ; Draw the second line
G92 E0 ; Reset Extruder
G1 Z2.0 F3000 ; Move Z Axis up little to prevent scratching of Heat Bed
G1 X5 Y20 Z0.3 F5000.0 ; Move over to prevent blob squish
G92 E0
G92 E0
G1 F2700 E-5
;LAYER_COUNT:48
;LAYER:0
M107
G0 F6000 X88.198 Y88.264 Z0.2
;TYPE:SKIRT
G1 F2700 E0
G1 F1200 X88.886 Y87.627 E0.03119
G1 X89.626 Y87.051 E0.06237
G1 X90.412 Y86.539 E0.09357
G1 X91.239 Y86.097 E0.12476
G1 X92.101 Y85.727 E0.15596
G1 X92.991 Y85.431 E0.18716
G1 X93.903 Y85.213 E0.21835
G1 X94.83 Y85.072 E0.24953
G1 X95.701 Y85.013 E0.27857
G1 X96.022 Y85.004 E0.28925
G1 X96.33 Y85 E0.29949
G1 X138.293 Y85 E1.69519
G1 X139.149 Y85.011 E1.72366
G1 X140.085 Y85.065 E1.75485
G1 X141.013 Y85.197 E1.78602
G1 X141.927 Y85.409 E1.81723
G1 X142.819 Y85.698 E1.84841
G1 X143.684 Y86.061 E1.87962
G1 X144.514 Y86.497 E1.9108
G1 X145.305 Y87.002 E1.94201
G1 X146.049 Y87.573 E1.97321
G1 X146.742 Y88.205 E2.0044
G1 X147.379 Y88.893 E2.03559
G1 X147.954 Y89.634 E2.06678
G1 X148.465 Y90.42 E2.09796
G1 X148.907 Y91.248 E2.12918
G1 X149.276 Y92.11 E2.16037
G1 X149.571 Y93 E2.19155
G1 X149.789 Y93.912 E2.22274
G1 X149.929 Y94.84 E2.25395
G1 X149.987 Y95.701 E2.28266
G1 X149.996 Y96.021 E2.2933
G1 X150 Y96.33 E2.30358
G1 X149.999 Y138.4 E3.70284
G1 X149.99 Y139.127 E3.72702
G1 X149.939 Y140.064 E3.75823
G1 X149.807 Y140.992 E3.7894
G1 X149.598 Y141.906 E3.82059
G1 X149.311 Y142.799 E3.85179
G1 X148.949 Y143.665 E3.88301
G1 X148.515 Y144.496 E3.91419
G1 X148.011 Y145.287 E3.94538
G1 X147.442 Y146.032 E3.97656
G1 X146.811 Y146.727 E4.00778
G1 X146.124 Y147.365 E4.03897
G1 X145.385 Y147.942 E4.07015
G1 X144.599 Y148.454 E4.10135
G1 X143.773 Y148.897 E4.13252
G1 X142.911 Y149.269 E4.16375
G1 X142.022 Y149.565 E4.19491
G1 X141.11 Y149.785 E4.22612
G1 X140.183 Y149.926 E4.2573
G1 X139.299 Y149.987 E4.28678
G1 X138.978 Y149.996 E4.29746
G1 X138.67 Y150 E4.3077
G1 X96.565 Y149.999 E5.70812
G1 X95.867 Y149.99 E5.73134
G1 X94.931 Y149.938 E5.76252
G1 X94.002 Y149.806 E5.79373
G1 X93.088 Y149.596 E5.82492
G1 X92.195 Y149.309 E5.85612
G1 X91.33 Y148.946 E5.88732
G1 X90.499 Y148.512 E5.9185
G1 X89.708 Y148.008 E5.94969
G1 X88.963 Y147.438 E5.98089
G1 X88.269 Y146.807 E6.01209
G1 X87.632 Y146.12 E6.04325
G1 X87.055 Y145.38 E6.07446
G1 X86.543 Y144.594 E6.10566
G1 X86.1 Y143.767 E6.13686
G1 X85.729 Y142.906 E6.16805
G1 X85.433 Y142.016 E6.19924
G1 X85.214 Y141.104 E6.23044
G1 X85.073 Y140.177 E6.26162
G1 X85.013 Y139.288 E6.29126
G1 X85.004 Y138.955 E6.30234
G1 X85 Y138.658 E6.31222
G1 X85.001 Y96.525 E7.71357
G1 X85.01 Y95.86 E7.73569
G1 X85.063 Y94.924 E7.76687
G1 X85.195 Y93.995 E7.79808
G1 X85.406 Y93.081 E7.82928
G1 X85.694 Y92.189 E7.86045
G1 X86.057 Y91.324 E7.89166
G1 X86.492 Y90.493 E7.92285
G1 X86.996 Y89.703 E7.95402
G1 X87.566 Y88.958 E7.98522
G1 X88.198 Y88.264 E8.01644
G0 F6000 X88.589 Y88.439
G1 F1200 X89.274 Y87.823 E8.04708
G1 X90.01 Y87.27 E8.0777
G1 X90.791 Y86.782 E8.10833
G1 X91.611 Y86.364 E8.13894
G1 X92.465 Y86.019 E8.16958
G1 X93.345 Y85.749 E8.20019
G1 X94.245 Y85.557 E8.2308
G1 X95.159 Y85.443 E8.26143
G1 X95.712 Y85.413 E8.27985
G1 X96.033 Y85.404 E8.29053
G1 X96.33 Y85.4 E8.30041
G1 X138.293 Y85.4 E9.69611
G1 X139.143 Y85.411 E9.72438
G1 X140.062 Y85.464 E9.755
G1 X140.973 Y85.597 E9.78562
G1 X141.869 Y85.808 E9.81624
G1 X142.743 Y86.096 E9.84684
G1 X143.59 Y86.459 E9.87749
G1 X144.401 Y86.894 E9.9081
G1 X145.171 Y87.398 E9.93871
G1 X145.895 Y87.967 E9.96934
G1 X146.567 Y88.597 E9.99997
G1 X147.182 Y89.282 E10.03059
G1 X147.735 Y90.018 E10.06121
G1 X148.222 Y90.799 E10.09182
G1 X148.639 Y91.62 E10.12245
G1 X148.984 Y92.474 E10.15309
G1 X149.253 Y93.354 E10.18369
G1 X149.445 Y94.255 E10.21433
G1 X149.558 Y95.168 E10.24493
G1 X149.587 Y95.712 E10.26305
G1 X149.596 Y96.032 E10.2737
G1 X149.6 Y96.33 E10.28361
G1 X149.599 Y138.395 E11.6827
G1 X149.59 Y139.122 E11.70688
G1 X149.539 Y140.041 E11.73749
G1 X149.408 Y140.953 E11.76814
G1 X149.198 Y141.849 E11.79875
G1 X148.912 Y142.724 E11.82936
G1 X148.551 Y143.571 E11.85999
G1 X148.117 Y144.383 E11.89061
G1 X147.615 Y145.155 E11.92124
G1 X147.047 Y145.88 E11.95187
G1 X146.419 Y146.553 E11.98249
G1 X145.735 Y147.169 E12.0131
G1 X145 Y147.723 E12.04371
G1 X144.22 Y148.212 E12.07433
G1 X143.4 Y148.631 E12.10496
G1 X142.547 Y148.977 E12.13558
G1 X141.667 Y149.248 E12.1662
G1 X140.767 Y149.441 E12.19682
G1 X139.853 Y149.556 E12.22746
G1 X139.288 Y149.587 E12.24628
G1 X138.967 Y149.596 E12.25696
G1 X138.67 Y149.6 E12.26684
G1 X96.57 Y149.599 E13.66709
G1 X95.872 Y149.59 E13.69031
G1 X94.953 Y149.538 E13.72092
G1 X94.042 Y149.407 E13.75153
G1 X93.146 Y149.197 E13.78214
G1 X92.271 Y148.91 E13.81277
G1 X91.424 Y148.548 E13.84341
G1 X90.612 Y148.114 E13.87403
G1 X89.841 Y147.612 E13.90463
G1 X89.116 Y147.044 E13.93526
G1 X88.443 Y146.415 E13.9659
G1 X87.828 Y145.731 E13.99649
G1 X87.274 Y144.996 E14.02711
G1 X86.786 Y144.215 E14.05774
G1 X86.367 Y143.395 E14.08836
G1 X86.021 Y142.542 E14.11898
G1 X85.751 Y141.662 E14.1496
G1 X85.558 Y140.761 E14.18024
G1 X85.444 Y139.848 E14.21085
G1 X85.413 Y139.277 E14.22986
G1 X85.404 Y138.944 E14.24094
G1 X85.4 Y138.658 E14.25046
G1 X85.401 Y96.531 E15.65161
G1 X85.41 Y95.866 E15.67373
G1 X85.462 Y94.946 E15.70438
G1 X85.594 Y94.035 E15.73499
G1 X85.805 Y93.139 E15.76561
G1 X86.092 Y92.264 E15.79624
G1 X86.455 Y91.418 E15.82686
G1 X86.889 Y90.606 E15.85748
G1 X87.392 Y89.835 E15.8881
G1 X87.961 Y89.111 E15.91872
G1 X88.589 Y88.439 E15.94932
G0 F6000 X88.981 Y88.617
G1 F1200 X89.662 Y88.024 E15.97935
G1 X90.394 Y87.494 E16.00941
G1 X91.169 Y87.031 E16.03943
G1 X91.982 Y86.638 E16.06947
G1 X92.827 Y86.318 E16.09952
G1 X93.696 Y86.075 E16.12953
G1 X94.584 Y85.909 E16.15958
G1 X95.723 Y85.813 E16.1976
G1 X96.044 Y85.804 E16.20828
G1 X96.33 Y85.8 E16.21779
G1 X138.293 Y85.8 E17.61349
G1 X139.137 Y85.811 E17.64156
G1 X140.039 Y85.864 E17.67161
G1 X140.932 Y85.996 E17.70164
G1 X141.81 Y86.207 E17.73167
G1 X142.666 Y86.495 E17.76171
G1 X143.493 Y86.857 E17.79173
G1 X144.285 Y87.292 E17.82179
G1 X145.036 Y87.794 E17.85183
G1 X145.739 Y88.361 E17.88187
G1 X146.389 Y88.988 E17.91191
G1 X146.981 Y89.67 E17.94195
G1 X147.511 Y90.401 E17.97198
G1 X147.973 Y91.177 E18.00202
G1 X148.366 Y91.99 E18.03205
G1 X148.684 Y92.835 E18.06208
G1 X148.927 Y93.705 E18.09212
G1 X149.092 Y94.593 E18.12216
G1 X149.187 Y95.723 E18.15988
G1 X149.196 Y96.043 E18.17053
G1 X149.2 Y96.33 E18.18007
G1 X149.199 Y138.39 E19.579
G1 X149.19 Y139.117 E19.60318
G1 X149.139 Y140.019 E19.63323
G1 X149.008 Y140.913 E19.66328
G1 X148.799 Y141.791 E19.6933
G1 X148.513 Y142.648 E19.72335
G1 X148.152 Y143.476 E19.75339
G1 X147.72 Y144.268 E19.78339
G1 X147.219 Y145.02 E19.81345
G1 X146.653 Y145.724 E19.84349
G1 X146.028 Y146.375 E19.87351
G1 X145.347 Y146.969 E19.90356
G1 X144.616 Y147.5 E19.93362
G1 X143.842 Y147.964 E19.96363
G1 X143.029 Y148.358 E19.99368
G1 X142.185 Y148.678 E20.0237
G1 X141.315 Y148.923 E20.05376
G1 X140.428 Y149.089 E20.08378
G1 X139.277 Y149.187 E20.1222
G1 X138.956 Y149.196 E20.13288
G1 X138.67 Y149.2 E20.14239
G1 X96.575 Y149.199 E21.54248
G1 X95.877 Y149.19 E21.56569
G1 X94.976 Y149.139 E21.59571
G1 X94.082 Y149.007 E21.62577
G1 X93.204 Y148.798 E21.65578
G1 X92.347 Y148.511 E21.68584
G1 X91.52 Y148.15 E21.71586
G1 X90.727 Y147.717 E21.74591
G1 X89.976 Y147.216 E21.77593
G1 X89.272 Y146.65 E21.80598
G1 X88.621 Y146.024 E21.83602
G1 X88.028 Y145.343 E21.86605
G1 X87.498 Y144.612 E21.89608
G1 X87.034 Y143.837 E21.92613
G1 X86.64 Y143.024 E21.95617
G1 X86.32 Y142.18 E21.9862
G1 X86.076 Y141.31 E22.01625
G1 X85.91 Y140.422 E22.0463
G1 X85.813 Y139.267 E22.08485
G1 X85.804 Y138.934 E22.09593
G1 X85.8 Y138.658 E22.10511
G1 X85.801 Y96.536 E23.50609
G1 X85.81 Y95.871 E23.52821
G1 X85.862 Y94.969 E23.55826
G1 X85.994 Y94.076 E23.58828
G1 X86.204 Y93.198 E23.61831
G1 X86.491 Y92.341 E23.64837
G1 X86.853 Y91.514 E23.6784
G1 X87.286 Y90.722 E23.70842
G1 X87.788 Y89.971 E23.73846
G1 X88.355 Y89.267 E23.76853
G1 X88.981 Y88.617 E23.79854
G1 F2700 E18.79854
;MESH:4keyCaseFree1_5.stl
G0 F6000 X96.42 Y95.335
G0 X96.42 Y96.42
G0 X138.218 Y96.782
G0 X138.4 Y138.4
;TYPE:WALL-INNER
G1 F2700 E23.79854
G1 F1200 X96.6 Y138.4 E25.18882
G1 X96.6 Y96.6 E26.57909
G1 X138.4 Y96.6 E27.96936
G1 X138.4 Y138.4 E29.35964
G0 F6000 X138.8 Y138.8
;TYPE:WALL-OUTER
G1 F1200 X96.2 Y138.8 E30.77652
G1 X96.2 Y96.2 E32.1934
G1 X138.8 Y96.2 E33.61028
G1 X138.8 Y138.8 E35.02716
G0 F6000 X138.53 Y138.53
G0 X138.29 Y138.01
G0 X138.01 Y138.01
;TYPE:SKIN
G1 F1200 X96.99 Y138.01 E36.3915
G1 X96.99 Y96.99 E37.75583
G1 X138.01 Y96.99 E39.12016
G1 X138.01 Y138.01 E40.48449
G1 F2700 E35.48449
G0 F6000 X138.29 Y138.01
G0 X138.29 Y97.686
G1 F2700 E40.48449
G0 F6000 X137.849 Y97.686
G1 F1200 X137.313 Y97.15 E40.5097
G0 F6000 X136.748 Y97.15
G1 F1200 X137.849 Y98.251 E40.56149
G0 F6000 X137.849 Y98.817
G1 F1200 X136.182 Y97.15 E40.6399
G0 F6000 X135.616 Y97.15
G1 F1200 X137.849 Y99.383 E40.74493
G0 F6000 X137.849 Y99.948
G1 F1200 X135.051 Y97.15 E40.87654
G0 F6000 X134.485 Y97.15
G1 F1200 X137.849 Y100.514 E41.03477
G0 F6000 X137.849 Y101.08
G1 F1200 X133.919 Y97.15 E41.21963
G0 F6000 X133.353 Y97.15
G1 F1200 X137.849 Y101.645 E41.43108
G0 F6000 X137.849 Y102.211
G1 F1200 X132.788 Y97.15 E41.66914
G0 F6000 X132.222 Y97.15
G1 F1200 X137.849 Y102.777 E41.93381
G0 F6000 X137.849 Y103.342
G1 F1200 X131.656 Y97.15 E42.22509
G0 F6000 X131.091 Y97.15
G1 F1200 X137.849 Y103.908 E42.54296
G0 F6000 X137.849 Y104.474
G1 F1200 X130.525 Y97.15 E42.88746
G0 F6000 X129.959 Y97.15
G1 F1200 X137.849 Y105.04 E43.25858
G0 F6000 X137.849 Y105.605
G1 F1200 X129.394 Y97.15 E43.65628
G0 F6000 X128.828 Y97.15
G1 F1200 X137.849 Y106.171 E44.0806
G0 F6000 X137.849 Y106.737
G1 F1200 X128.262 Y97.15 E44.53155
G0 F6000 X127.697 Y97.15
G1 F1200 X137.849 Y107.302 E45.00906
G0 F6000 X137.849 Y107.868
G1 F1200 X127.131 Y97.15 E45.51321
G0 F6000 X126.565 Y97.15
G1 F1200 X137.849 Y108.434 E46.04397
G0 F6000 X137.849 Y108.999
G1 F1200 X126 Y97.15 E46.60131
G0 F6000 X125.434 Y97.15
G1 F1200 X137.849 Y109.565 E47.18527
G0 F6000 X137.849 Y110.131
G1 F1200 X124.868 Y97.15 E47.79586
G0 F6000 X124.303 Y97.15
G1 F1200 X137.849 Y110.696 E48.43302
G0 F6000 X137.849 Y111.262
G1 F1200 X123.737 Y97.15 E49.09681
G0 F6000 X123.171 Y97.15
G1 F1200 X137.849 Y111.828 E49.78722
G0 F6000 X137.849 Y112.393
G1 F1200 X122.605 Y97.15 E50.50422
G0 F6000 X122.04 Y97.15
G1 F1200 X137.849 Y112.959 E51.24783
G0 F6000 X137.849 Y113.525
G1 F1200 X121.474 Y97.15 E52.01806
G0 F6000 X120.908 Y97.15
G1 F1200 X137.849 Y114.09 E52.81489
G0 F6000 X137.849 Y114.656
G1 F1200 X120.343 Y97.15 E53.63832
G0 F6000 X119.777 Y97.15
G1 F1200 X137.849 Y115.222 E54.48837
G0 F6000 X137.849 Y115.788
G1 F1200 X119.211 Y97.15 E55.36504
G0 F6000 X118.646 Y97.15
G1 F1200 X137.849 Y116.353 E56.2683
G0 F6000 X137.849 Y116.919
G1 F1200 X118.08 Y97.15 E57.19817
G0 F6000 X117.514 Y97.15
G1 F1200 X137.849 Y117.485 E58.15466
G0 F6000 X137.849 Y118.05
G1 F1200 X116.949 Y97.15 E59.13774
G0 F6000 X116.383 Y97.15
G1 F1200 X137.849 Y118.616 E60.14743
G0 F6000 X137.849 Y119.182
G1 F1200 X115.817 Y97.15 E61.18375
G0 F6000 X115.252 Y97.15
G1 F1200 X137.849 Y119.747 E62.24664
G0 F6000 X137.849 Y120.313
G1 F1200 X114.686 Y97.15 E63.33616
G0 F6000 X114.12 Y97.15
G1 F1200 X137.849 Y120.879 E64.4523
G0 F6000 X137.849 Y121.444
G1 F1200 X113.554 Y97.15 E65.59504
G0 F6000 X112.989 Y97.15
G1 F1200 X137.849 Y122.01 E66.76438
G0 F6000 X137.849 Y122.576
G1 F1200 X112.423 Y97.15 E67.96034
G0 F6000 X111.857 Y97.15
G1 F1200 X137.849 Y123.141 E69.1829
G0 F6000 X137.849 Y123.707
G1 F1200 X111.292 Y97.15 E70.43206
G0 F6000 X110.726 Y97.15
G1 F1200 X137.849 Y124.273 E71.70784
G0 F6000 X137.849 Y124.838
G1 F1200 X110.16 Y97.15 E73.01022
G0 F6000 X109.595 Y97.15
G1 F1200 X137.849 Y125.404 E74.3392
G0 F6000 X137.849 Y125.97
G1 F1200 X109.029 Y97.15 E75.69481
G0 F6000 X108.463 Y97.15
G1 F1200 X137.849 Y126.536 E77.07703
G0 F6000 X137.849 Y127.101
G1 F1200 X107.898 Y97.15 E78.48584
G0 F6000 X107.332 Y97.15
G1 F1200 X137.849 Y127.667 E79.92126
G0 F6000 X137.849 Y128.233
G1 F1200 X106.766 Y97.15 E81.38331
G0 F6000 X106.201 Y97.15
G1 F1200 X137.849 Y128.798 E82.87194
G0 F6000 X137.849 Y129.364
G1 F1200 X105.635 Y97.15 E84.38719
G0 F6000 X105.069 Y97.15
G1 F1200 X137.849 Y129.93 E85.92906
G0 F6000 X137.849 Y130.495
G1 F1200 X104.504 Y97.15 E87.4975
G0 F6000 X103.938 Y97.15
G1 F1200 X137.849 Y131.061 E89.09257
G0 F6000 X137.849 Y131.627
G1 F1200 X103.372 Y97.15 E90.71427
G0 F6000 X102.806 Y97.15
G1 F1200 X137.849 Y132.192 E92.36256
G0 F6000 X137.849 Y132.758
G1 F1200 X102.241 Y97.15 E94.03745
G0 F6000 X101.675 Y97.15
G1 F1200 X137.849 Y133.324 E95.73896
G0 F6000 X137.849 Y133.889
G1 F1200 X101.109 Y97.15 E97.46708
G0 F6000 X100.544 Y97.15
G1 F1200 X137.849 Y134.455 E99.22179
G0 F6000 X137.849 Y135.021
G1 F1200 X99.978 Y97.15 E101.00312
G0 F6000 X99.412 Y97.15
G1 F1200 X137.849 Y135.587 E102.81108
G0 F6000 X137.849 Y136.152
G1 F1200 X98.847 Y97.15 E104.64562
G0 F6000 X98.281 Y97.15
G1 F1200 X137.849 Y136.718 E106.50677
G0 F6000 X137.849 Y137.284
G1 F1200 X97.715 Y97.15 E108.39455
G0 F6000 X97.149 Y97.149
G1 F1200 X137.849 Y137.849 E110.30896
G0 F6000 X137.284 Y137.849
G1 F1200 X97.149 Y97.715 E112.19676
G0 F6000 X97.149 Y98.28
G1 F1200 X136.718 Y137.849 E114.05797
G0 F6000 X136.152 Y137.849
G1 F1200 X97.149 Y98.846 E115.89255
G0 F6000 X97.149 Y99.412
G1 F1200 X135.587 Y137.849 E117.70053
G0 F6000 X135.021 Y137.849
G1 F1200 X97.149 Y99.977 E119.48191
G0 F6000 X97.149 Y100.543
G1 F1200 X134.455 Y137.849 E121.23667
G0 F6000 X133.889 Y137.849
G1 F1200 X97.149 Y101.109 E122.96481
G0 F6000 X97.149 Y101.674
G1 F1200 X133.324 Y137.849 E124.66637
G0 F6000 X132.758 Y137.849
G1 F1200 X97.149 Y102.24 E126.34131
G0 F6000 X97.149 Y102.806
G1 F1200 X132.192 Y137.849 E127.98962
G0 F6000 X131.627 Y137.849
G1 F1200 X97.149 Y103.371 E129.61136
G0 F6000 X97.149 Y103.937
G1 F1200 X131.061 Y137.849 E131.20648
G0 F6000 X130.495 Y137.849
G1 F1200 X97.149 Y104.503 E132.77497
G0 F6000 X97.149 Y105.068
G1 F1200 X129.93 Y137.849 E134.31689
G0 F6000 X129.364 Y137.849
G1 F1200 X97.149 Y105.634 E135.83219
G0 F6000 X97.149 Y106.2
G1 F1200 X128.798 Y137.849 E137.32086
G0 F6000 X128.233 Y137.849
G1 F1200 X97.149 Y106.766 E138.78293
G0 F6000 X97.149 Y107.331
G1 F1200 X127.667 Y137.849 E140.2184
G0 F6000 X127.101 Y137.849
G1 F1200 X97.149 Y107.897 E141.62725
G0 F6000 X97.149 Y108.463
G1 F1200 X126.536 Y137.849 E143.0095
G0 F6000 X125.97 Y137.849
G1 F1200 X97.149 Y109.028 E144.36516
G0 F6000 X97.149 Y109.594
G1 F1200 X125.404 Y137.849 E145.69419
G0 F6000 X124.838 Y137.849
G1 F1200 X97.149 Y110.16 E146.99659
G0 F6000 X97.149 Y110.725
G1 F1200 X124.273 Y137.849 E148.27242
G0 F6000 X123.707 Y137.849
G1 F1200 X97.149 Y111.291 E149.52163
G0 F6000 X97.149 Y111.857
G1 F1200 X123.141 Y137.849 E150.74421
G0 F6000 X122.576 Y137.849
G1 F1200 X97.149 Y112.422 E151.94022
G0 F6000 X97.149 Y112.988
G1 F1200 X122.01 Y137.849 E153.1096
G0 F6000 X121.444 Y137.849
G1 F1200 X97.149 Y113.554 E154.25237
G0 F6000 X97.149 Y114.119
G1 F1200 X120.879 Y137.849 E155.36855
G0 F6000 X120.313 Y137.849
G1 F1200 X97.149 Y114.685 E156.45812
G0 F6000 X97.149 Y115.251
G1 F1200 X119.747 Y137.849 E157.52106
G0 F6000 X119.182 Y137.849
G1 F1200 X97.149 Y115.817 E158.5574
G0 F6000 X97.149 Y116.382
G1 F1200 X118.616 Y137.849 E159.56714
G0 F6000 X118.05 Y137.849
G1 F1200 X97.149 Y116.948 E160.55026
G0 F6000 X97.149 Y117.514
G1 F1200 X117.485 Y137.849 E161.50678
G0 F6000 X116.919 Y137.849
G1 F1200 X97.149 Y118.079 E162.4367
G0 F6000 X97.149 Y118.645
